SVG_Azure_All/Cognitive Services QnA Bot.svg

<?xml version="1.0" encoding="UTF-8" standalone="no"?>
<!-- Generated by Microsoft Visio, SVG Export Cognitive Services QnA Bot.svg Page-1 -->

<svg
   xmlns:dc="http://purl.org/dc/elements/1.1/"
   xmlns:cc="http://creativecommons.org/ns#"
   xmlns:rdf="http://www.w3.org/1999/02/22-rdf-syntax-ns#"
   xmlns:svg="http://www.w3.org/2000/svg"
   xmlns="http://www.w3.org/2000/svg"
   xmlns:sodipodi="http://sodipodi.sourceforge.net/DTD/sodipodi-0.dtd"
   xmlns:inkscape="http://www.inkscape.org/namespaces/inkscape"
   width="0.74805367in"
   height="0.78448182in"
   viewBox="0 0 53.859833 56.482831"
   xml:space="preserve"
   class="st3"
   version="1.1"
   id="svg31"
   sodipodi:docname="Cognitive Services QnA Bot.svg"
   style="font-size:12px;overflow:visible;color-interpolation-filters:sRGB;fill:none;fill-rule:evenodd;stroke-linecap:square;stroke-miterlimit:3"
   inkscape:version="0.92.5 (2060ec1f9f, 2020-04-08)"><metadata
   id="metadata37"><rdf:RDF><cc:Work
       rdf:about=""><dc:format>image/svg+xml</dc:format><dc:type
         rdf:resource="http://purl.org/dc/dcmitype/StillImage" /></cc:Work></rdf:RDF></metadata><defs
   id="defs35" /><sodipodi:namedview
   pagecolor="#ffffff"
   bordercolor="#666666"
   borderopacity="1"
   objecttolerance="10"
   gridtolerance="10"
   guidetolerance="10"
   inkscape:pageopacity="0"
   inkscape:pageshadow="2"
   inkscape:window-width="640"
   inkscape:window-height="480"
   id="namedview33"
   showgrid="false"
   inkscape:zoom="1.8365233"
   inkscape:cx="35.905404"
   inkscape:cy="18.614126"
   inkscape:window-x="-30080"
   inkscape:window-y="-32000"
   inkscape:window-maximized="0"
   inkscape:current-layer="svg31" />
	<style
   type="text/css"
   id="style2">
	<![CDATA[
		.st1 {fill:#0078d4;stroke:none;stroke-linecap:butt;stroke-width:0.75}
		.st2 {fill:#50e6ff;stroke:none;stroke-linecap:butt;stroke-width:0.75}
		.st3 {fill:none;fill-rule:evenodd;font-size:12px;overflow:visible;stroke-linecap:square;stroke-miterlimit:3}
	]]>
	</style>

	<g
   id="g29"
   transform="translate(-5.3859292,-5.6668)">
		<title
   id="title4">Page-1</title>
		<g
   id="group6363-1"
   transform="translate(5.38583,-34.0157)">
			<title
   id="title6">Cognitive Services QnA Bot</title>
			<g
   id="shape6364-2"
   transform="translate(0,-2.7075)">
				<title
   id="title8">Sheet.6364</title>
				<path
   d="m 26.93,96.38 c 14.87,0 26.93,-12.09 26.93,-26.99 0,-14.91 -12.06,-27 -26.93,-27 C 12.06,42.39 0,54.48 0,69.39 0,84.29 12.06,96.38 26.93,96.38 Z"
   class="st1"
   id="path10"
   inkscape:connector-curvature="0"
   style="fill:#0078d4;stroke:none;stroke-width:0.75;stroke-linecap:butt" />
			</g>
			<g
   id="shape6365-4"
   transform="translate(4.5346)">
				<title
   id="title13">Sheet.6365</title>
				<path
   d="M 11.66,77.26 4.1,85.67 0.27,95.04 C 0,95.71 0.67,96.38 1.34,96.1 l 14.01,-5.83 5.18,-8.13 z"
   class="st1"
   id="path15"
   inkscape:connector-curvature="0"
   style="fill:#0078d4;stroke:none;stroke-width:0.75;stroke-linecap:butt" />
			</g>
			<g
   id="shape6366-6"
   transform="translate(14.6506,-17.3871)">
				<title
   id="title18">Sheet.6366</title>
				<path
   d="m 0,96.38 c 0,-6.81 5.49,-12.31 12.28,-12.31 6.79,0 12.28,5.5 12.28,12.31 z"
   class="st2"
   id="path20"
   inkscape:connector-curvature="0"
   style="fill:#50e6ff;stroke:none;stroke-width:0.75;stroke-linecap:butt" />
			</g>
			<g
   id="shape6367-8"
   transform="translate(19.9626,-31.6427)">
				<title
   id="title23">Sheet.6367</title>
				<path
   d="m 13.93,89.4 c 0,3.85 -3.12,6.98 -6.96,6.98 C 3.12,96.38 0,93.25 0,89.4 c 0,-3.86 3.12,-6.99 6.97,-6.99 3.84,0 6.96,3.13 6.96,6.99 z"
   class="st2"
   id="path25"
   inkscape:connector-curvature="0"
   style="fill:#50e6ff;stroke:none;stroke-width:0.75;stroke-linecap:butt" />
			</g>
		</g>
	</g>
</svg>

<?xml version="1.0" encoding="UTF-8" standalone="no"?>
<!DOCTYPE svg PUBLIC "-//W3C//DTD SVG 1.1//EN" "http://www.w3.org/Graphics/SVG/1.1/DTD/svg11.dtd">
<!-- Generated by Microsoft Visio, SVG Export Cognitive Services QnA Bot.svg Page-1 -->
<svg xmlns="http://www.w3.org/2000/svg" xmlns:xlink="http://www.w3.org/1999/xlink" xmlns:ev="http://www.w3.org/2001/xml-events"
		width="0.897638in" height="1.33858in" viewBox="0 0 64.6299 96.378" xml:space="preserve" color-interpolation-filters="sRGB"
		class="st3">
	<style type="text/css">
	<![CDATA[
		.st1 {fill:#0078d4;stroke:none;stroke-linecap:butt;stroke-width:0.75}
		.st2 {fill:#50e6ff;stroke:none;stroke-linecap:butt;stroke-width:0.75}
		.st3 {fill:none;fill-rule:evenodd;font-size:12px;overflow:visible;stroke-linecap:square;stroke-miterlimit:3}
	]]>
	</style>

	<g>
		<title>Page-1</title>
		<g id="group6195-1" transform="translate(5.38583,-34.0157)">
			<title>Cognitive Services QnA Bot</title>
			<g id="shape6196-2" transform="translate(0,-2.7075)">
				<title>Sheet.6196</title>
				<path d="M26.93 96.38 C41.8 96.38 53.86 84.29 53.86 69.39 C53.86 54.48 41.8 42.39 26.93 42.39 C12.06 42.39 0 54.48
							 0 69.39 C0 84.29 12.06 96.38 26.93 96.38 Z" class="st1"/>
			</g>
			<g id="shape6197-4" transform="translate(4.5346,2.98428E-13)">
				<title>Sheet.6197</title>
				<path d="M11.66 77.26 L4.1 85.67 L0.27 95.04 C0 95.71 0.67 96.38 1.34 96.1 L15.35 90.27 L20.53 82.14 L11.66 77.26
							 Z" class="st1"/>
			</g>
			<g id="shape6198-6" transform="translate(14.6506,-17.3871)">
				<title>Sheet.6198</title>
				<path d="M0 96.38 C0 89.57 5.49 84.07 12.28 84.07 C19.07 84.07 24.56 89.57 24.56 96.38 L0 96.38 Z" class="st2"/>
			</g>
			<g id="shape6199-8" transform="translate(19.9626,-31.6427)">
				<title>Sheet.6199</title>
				<path d="M13.93 89.4 C13.93 93.25 10.81 96.38 6.97 96.38 C3.12 96.38 0 93.25 0 89.4 C0 85.54 3.12 82.41 6.97 82.41
							 C10.81 82.41 13.93 85.54 13.93 89.4 Z" class="st2"/>
			</g>
		</g>
	</g>
</svg>
